X: 75
T: Pollonesse #75
M: 3/4
L: 1/16
K: C
Q:120
e4 A2e2 f2e2|d2f2 e4 cdec|A4 cdec A2c2|B2F2 G4 G,4:|
c2c2 c2c2 c2c2|dcd2 dcBc dcBA|c2c2 c2c2 c2c2|dcd2 dcBc dcBA|
A2B2 c2d2 c4|c2d2e2f2 e4|c2d2 e2c2 A2c2|B2F2 G4G,4:|

